X:106
T: ROHE ROHE SEIDE
N: K2100
O: Europa, Mitteleuropa, Deutschland, Provinz Sachsen
R: Kinder - Lied, Reigen, Tanz - Spiel
M: 2/4
L: 1/16
K: D
 | A2A2B2B2 | A4F4
A2A2B2B2 | A4F4
A4F4 | A2A2F4
A2A2B2B2 | A2A2F4
A2A2B2B2 | A2A2F4
A2A2B2B2 | A2A2F4
A2A2B2B2 | A2A2F2FF
A2A2B2B2 | A2A2F2FF
A2A2B2B2 | A4F2z2
A2A2F2D2 | B2B2A2A2
G2G2F2F2 | E2A2D2D2

